topics/special-relativity/Latex/images/svg/Tikz_Perceived_Velocity.svg

<?xml version="1.0" encoding="UTF-8"?>
<svg xmlns="http://www.w3.org/2000/svg" xmlns:xlink="http://www.w3.org/1999/xlink" width="151.75pt" height="98.37pt" viewBox="0 0 151.75 98.37" version="1.1">
<defs>
<g>
<symbol overflow="visible" id="glyph0-0">
<path style="stroke:none;" d=""/>
</symbol>
<symbol overflow="visible" id="glyph0-1">
<path style="stroke:none;" d="M 4.84375 -3.796875 C 4.890625 -3.9375 4.890625 -3.953125 4.890625 -4.03125 C 4.890625 -4.203125 4.75 -4.296875 4.59375 -4.296875 C 4.5 -4.296875 4.34375 -4.234375 4.25 -4.09375 C 4.234375 -4.03125 4.140625 -3.734375 4.109375 -3.546875 C 4.03125 -3.296875 3.96875 -3.015625 3.90625 -2.75 L 3.453125 -0.953125 C 3.421875 -0.8125 2.984375 -0.109375 2.328125 -0.109375 C 1.828125 -0.109375 1.71875 -0.546875 1.71875 -0.921875 C 1.71875 -1.375 1.890625 -2 2.21875 -2.875 C 2.375 -3.28125 2.421875 -3.390625 2.421875 -3.59375 C 2.421875 -4.03125 2.109375 -4.40625 1.609375 -4.40625 C 0.65625 -4.40625 0.296875 -2.953125 0.296875 -2.875 C 0.296875 -2.765625 0.390625 -2.765625 0.40625 -2.765625 C 0.515625 -2.765625 0.515625 -2.796875 0.5625 -2.953125 C 0.84375 -3.890625 1.234375 -4.1875 1.578125 -4.1875 C 1.65625 -4.1875 1.828125 -4.1875 1.828125 -3.875 C 1.828125 -3.625 1.71875 -3.359375 1.65625 -3.171875 C 1.25 -2.109375 1.078125 -1.546875 1.078125 -1.078125 C 1.078125 -0.1875 1.703125 0.109375 2.296875 0.109375 C 2.6875 0.109375 3.015625 -0.0625 3.296875 -0.34375 C 3.171875 0.171875 3.046875 0.671875 2.65625 1.203125 C 2.390625 1.53125 2.015625 1.828125 1.5625 1.828125 C 1.421875 1.828125 0.96875 1.796875 0.796875 1.40625 C 0.953125 1.40625 1.09375 1.40625 1.21875 1.28125 C 1.328125 1.203125 1.421875 1.0625 1.421875 0.875 C 1.421875 0.5625 1.15625 0.53125 1.0625 0.53125 C 0.828125 0.53125 0.5 0.6875 0.5 1.171875 C 0.5 1.671875 0.9375 2.046875 1.5625 2.046875 C 2.578125 2.046875 3.609375 1.140625 3.890625 0.015625 Z M 4.84375 -3.796875 "/>
</symbol>
<symbol overflow="visible" id="glyph0-2">
<path style="stroke:none;" d="M 1.328125 -0.828125 C 1.859375 -1.40625 2.15625 -1.65625 2.515625 -1.96875 C 2.515625 -1.96875 3.125 -2.5 3.484375 -2.859375 C 4.4375 -3.78125 4.65625 -4.265625 4.65625 -4.3125 C 4.65625 -4.40625 4.5625 -4.40625 4.546875 -4.40625 C 4.46875 -4.40625 4.453125 -4.390625 4.390625 -4.296875 C 4.09375 -3.8125 3.890625 -3.65625 3.65625 -3.65625 C 3.40625 -3.65625 3.296875 -3.8125 3.140625 -3.984375 C 2.953125 -4.203125 2.78125 -4.40625 2.453125 -4.40625 C 1.703125 -4.40625 1.25 -3.484375 1.25 -3.265625 C 1.25 -3.21875 1.28125 -3.15625 1.359375 -3.15625 C 1.453125 -3.15625 1.46875 -3.203125 1.5 -3.265625 C 1.6875 -3.734375 2.265625 -3.734375 2.34375 -3.734375 C 2.546875 -3.734375 2.734375 -3.671875 2.96875 -3.59375 C 3.375 -3.4375 3.484375 -3.4375 3.734375 -3.4375 C 3.375 -3.015625 2.546875 -2.296875 2.359375 -2.140625 L 1.453125 -1.296875 C 0.78125 -0.625 0.421875 -0.0625 0.421875 0.015625 C 0.421875 0.109375 0.53125 0.109375 0.546875 0.109375 C 0.625 0.109375 0.640625 0.09375 0.703125 -0.015625 C 0.9375 -0.375 1.234375 -0.640625 1.5625 -0.640625 C 1.78125 -0.640625 1.890625 -0.546875 2.140625 -0.265625 C 2.296875 -0.046875 2.484375 0.109375 2.765625 0.109375 C 3.765625 0.109375 4.34375 -1.15625 4.34375 -1.421875 C 4.34375 -1.46875 4.296875 -1.53125 4.21875 -1.53125 C 4.125 -1.53125 4.109375 -1.46875 4.078125 -1.390625 C 3.84375 -0.75 3.203125 -0.5625 2.875 -0.5625 C 2.6875 -0.5625 2.5 -0.625 2.296875 -0.6875 C 1.953125 -0.8125 1.796875 -0.859375 1.59375 -0.859375 C 1.578125 -0.859375 1.421875 -0.859375 1.328125 -0.828125 Z M 1.328125 -0.828125 "/>
</symbol>
<symbol overflow="visible" id="glyph0-3">
<path style="stroke:none;" d="M 3.328125 -3.015625 C 3.390625 -3.265625 3.625 -4.1875 4.3125 -4.1875 C 4.359375 -4.1875 4.609375 -4.1875 4.8125 -4.0625 C 4.53125 -4 4.34375 -3.765625 4.34375 -3.515625 C 4.34375 -3.359375 4.453125 -3.171875 4.71875 -3.171875 C 4.9375 -3.171875 5.25 -3.34375 5.25 -3.75 C 5.25 -4.265625 4.671875 -4.40625 4.328125 -4.40625 C 3.75 -4.40625 3.40625 -3.875 3.28125 -3.65625 C 3.03125 -4.3125 2.5 -4.40625 2.203125 -4.40625 C 1.171875 -4.40625 0.59375 -3.125 0.59375 -2.875 C 0.59375 -2.765625 0.703125 -2.765625 0.71875 -2.765625 C 0.796875 -2.765625 0.828125 -2.796875 0.84375 -2.875 C 1.1875 -3.9375 1.84375 -4.1875 2.1875 -4.1875 C 2.375 -4.1875 2.71875 -4.09375 2.71875 -3.515625 C 2.71875 -3.203125 2.546875 -2.546875 2.1875 -1.140625 C 2.03125 -0.53125 1.671875 -0.109375 1.234375 -0.109375 C 1.171875 -0.109375 0.953125 -0.109375 0.734375 -0.234375 C 0.984375 -0.296875 1.203125 -0.5 1.203125 -0.78125 C 1.203125 -1.046875 0.984375 -1.125 0.84375 -1.125 C 0.53125 -1.125 0.296875 -0.875 0.296875 -0.546875 C 0.296875 -0.09375 0.78125 0.109375 1.21875 0.109375 C 1.890625 0.109375 2.25 -0.59375 2.265625 -0.640625 C 2.390625 -0.28125 2.75 0.109375 3.34375 0.109375 C 4.375 0.109375 4.9375 -1.171875 4.9375 -1.421875 C 4.9375 -1.53125 4.859375 -1.53125 4.828125 -1.53125 C 4.734375 -1.53125 4.71875 -1.484375 4.6875 -1.421875 C 4.359375 -0.34375 3.6875 -0.109375 3.375 -0.109375 C 2.984375 -0.109375 2.828125 -0.421875 2.828125 -0.765625 C 2.828125 -0.984375 2.875 -1.203125 2.984375 -1.640625 Z M 3.328125 -3.015625 "/>
</symbol>
<symbol overflow="visible" id="glyph1-0">
<path style="stroke:none;" d=""/>
</symbol>
<symbol overflow="visible" id="glyph1-1">
<path style="stroke:none;" d="M 2.03125 -3.359375 L 2.03125 -4.484375 L 0.375 -4.40625 L 0.375 -3.9375 C 0.984375 -3.9375 1.0625 -3.9375 1.0625 -3.546875 L 1.0625 -0.46875 L 0.375 -0.46875 L 0.375 0 C 0.71875 -0.015625 1.171875 -0.03125 1.625 -0.03125 C 2 -0.03125 2.640625 -0.03125 3 0 L 3 -0.46875 L 2.140625 -0.46875 L 2.140625 -2.21875 C 2.140625 -2.90625 2.375 -4.125 3.375 -4.125 C 3.375 -4.109375 3.1875 -3.953125 3.1875 -3.671875 C 3.1875 -3.265625 3.515625 -3.0625 3.796875 -3.0625 C 4.09375 -3.0625 4.40625 -3.265625 4.40625 -3.671875 C 4.40625 -4.203125 3.875 -4.484375 3.34375 -4.484375 C 2.65625 -4.484375 2.25 -3.984375 2.03125 -3.359375 Z M 2.03125 -3.359375 "/>
</symbol>
<symbol overflow="visible" id="glyph1-2">
<path style="stroke:none;" d="M 4.171875 -0.421875 L 4.171875 0.0625 L 5.984375 0 L 5.984375 -0.46875 C 5.375 -0.46875 5.296875 -0.46875 5.296875 -0.859375 L 5.296875 -6.921875 L 3.53125 -6.84375 L 3.53125 -6.375 C 4.15625 -6.375 4.234375 -6.375 4.234375 -5.984375 L 4.234375 -4.03125 C 3.734375 -4.421875 3.203125 -4.484375 2.875 -4.484375 C 1.421875 -4.484375 0.375 -3.609375 0.375 -2.203125 C 0.375 -0.890625 1.296875 0.0625 2.765625 0.0625 C 3.375 0.0625 3.859375 -0.171875 4.171875 -0.421875 Z M 4.171875 -3.515625 L 4.171875 -1.03125 C 4.03125 -0.84375 3.625 -0.296875 2.875 -0.296875 C 1.65625 -0.296875 1.65625 -1.5 1.65625 -2.203125 C 1.65625 -2.6875 1.65625 -3.21875 1.90625 -3.609375 C 2.203125 -4.03125 2.671875 -4.125 2.984375 -4.125 C 3.546875 -4.125 3.953125 -3.8125 4.171875 -3.515625 Z M 4.171875 -3.515625 "/>
</symbol>
<symbol overflow="visible" id="glyph2-0">
<path style="stroke:none;" d=""/>
</symbol>
<symbol overflow="visible" id="glyph2-1">
<path style="stroke:none;" d="M 4.078125 -2.296875 L 6.859375 -2.296875 C 7 -2.296875 7.1875 -2.296875 7.1875 -2.5 C 7.1875 -2.6875 7 -2.6875 6.859375 -2.6875 L 4.078125 -2.6875 L 4.078125 -5.484375 C 4.078125 -5.625 4.078125 -5.8125 3.875 -5.8125 C 3.671875 -5.8125 3.671875 -5.625 3.671875 -5.484375 L 3.671875 -2.6875 L 0.890625 -2.6875 C 0.75 -2.6875 0.5625 -2.6875 0.5625 -2.5 C 0.5625 -2.296875 0.75 -2.296875 0.890625 -2.296875 L 3.671875 -2.296875 L 3.671875 0.5 C 3.671875 0.640625 3.671875 0.828125 3.875 0.828125 C 4.078125 0.828125 4.078125 0.640625 4.078125 0.5 Z M 4.078125 -2.296875 "/>
</symbol>
</g>
<clipPath id="clip1">
  <path d="M 1 56 L 55 56 L 55 98.371094 L 1 98.371094 Z M 1 56 "/>
</clipPath>
<clipPath id="clip2">
  <path d="M 12 94 L 17 94 L 17 98.371094 L 12 98.371094 Z M 12 94 "/>
</clipPath>
</defs>
<g id="surface1">
<path style=" stroke:none;fill-rule:nonzero;fill:rgb(100%,89.411926%,78.431702%);fill-opacity:1;" d="M 0 98.371094 L 151.75 98.371094 L 151.75 0 L 0 0 Z M 0 98.371094 "/>
<path style="fill:none;stroke-width:0.79701;stroke-linecap:butt;stroke-linejoin:miter;stroke:rgb(0%,0%,0%);stroke-opacity:1;stroke-miterlimit:10;" d="M 0.00109375 -0.0009375 L 55.985469 -0.0009375 " transform="matrix(1,0,0,-1,42.745,67.96)"/>
<path style="fill:none;stroke-width:0.6376;stroke-linecap:round;stroke-linejoin:round;stroke:rgb(0%,0%,0%);stroke-opacity:1;stroke-miterlimit:10;" d="M -1.554589 2.073281 C -1.425683 1.295937 0.00009875 0.127969 0.386817 -0.0009375 C 0.00009875 -0.129844 -1.425683 -1.293906 -1.554589 -2.07125 " transform="matrix(1,0,0,-1,98.73037,67.96)"/>
<g style="fill:rgb(0%,0%,0%);fill-opacity:1;">
  <use xlink:href="#glyph0-1" x="90.476" y="75.968"/>
</g>
<path style="fill:none;stroke-width:0.79701;stroke-linecap:butt;stroke-linejoin:miter;stroke:rgb(0%,0%,0%);stroke-opacity:1;stroke-miterlimit:10;" d="M 0.00109375 -0.0009375 L 0.00109375 55.983437 " transform="matrix(1,0,0,-1,42.745,67.96)"/>
<path style="fill:none;stroke-width:0.6376;stroke-linecap:round;stroke-linejoin:round;stroke:rgb(0%,0%,0%);stroke-opacity:1;stroke-miterlimit:10;" d="M -1.552714 2.073125 C -1.423808 1.295781 -0.0019325 0.127813 0.388692 -0.00109375 C -0.0019325 -0.13 -1.423808 -1.294062 -1.552714 -2.071406 " transform="matrix(0,-1,-1,0,42.745,11.97463)"/>
<g style="fill:rgb(0%,0%,0%);fill-opacity:1;">
  <use xlink:href="#glyph0-2" x="33.955" y="19.276"/>
</g>
<g clip-path="url(#clip1)" clip-rule="nonzero">
<path style="fill:none;stroke-width:0.79701;stroke-linecap:butt;stroke-linejoin:miter;stroke:rgb(0%,0%,0%);stroke-opacity:1;stroke-miterlimit:10;" d="M 0.00109375 -0.0009375 L -29.510625 -29.512656 " transform="matrix(1,0,0,-1,42.745,67.96)"/>
</g>
<g clip-path="url(#clip2)" clip-rule="nonzero">
<path style="fill:none;stroke-width:0.6376;stroke-linecap:round;stroke-linejoin:round;stroke:rgb(0%,0%,0%);stroke-opacity:1;stroke-miterlimit:10;" d="M -1.552419 2.073058 C -1.42536 1.294128 -0.0000839697 0.128496 0.389381 -0.00132584 C -0.0000839697 -0.131147 -1.42536 -1.29678 -1.555181 -2.072948 " transform="matrix(-0.7071,0.7071,0.7071,0.7071,13.2333,97.4717)"/>
</g>
<g style="fill:rgb(0%,0%,0%);fill-opacity:1;">
  <use xlink:href="#glyph0-3" x="3.321" y="94.252"/>
</g>
<path style="fill:none;stroke-width:0.79701;stroke-linecap:butt;stroke-linejoin:miter;stroke:rgb(100%,0%,0%);stroke-opacity:1;stroke-dasharray:0.79701,1.99255;stroke-miterlimit:10;" d="M 0.501094 0.499062 L 56.6925 56.694375 " transform="matrix(1,0,0,-1,42.745,67.96)"/>
<path style="fill:none;stroke-width:0.6376;stroke-linecap:round;stroke-linejoin:round;stroke:rgb(100%,0%,0%);stroke-opacity:1;stroke-miterlimit:10;" d="M -1.554953 2.070296 C -1.425132 1.294128 0.000144074 0.128496 0.389609 -0.00132584 C 0.000144074 -0.131147 -1.425132 -1.29678 -1.554953 -2.072948 " transform="matrix(-0.7071,0.7071,0.7071,0.7071,43.24518,67.45982)"/>
<path style="fill:none;stroke-width:0.79701;stroke-linecap:butt;stroke-linejoin:miter;stroke:rgb(100%,0%,0%);stroke-opacity:1;stroke-dasharray:0.79701,1.99255;stroke-miterlimit:10;" d="M 0.606562 0.362344 L 70.868281 42.5225 " transform="matrix(1,0,0,-1,42.745,67.96)"/>
<path style="fill:none;stroke-width:0.6376;stroke-linecap:round;stroke-linejoin:round;stroke:rgb(100%,0%,0%);stroke-opacity:1;stroke-miterlimit:10;" d="M -1.553427 2.072815 C -1.424142 1.293687 0.000106612 0.12933 0.387993 0.00136752 C -0.000567318 -0.129932 -1.423512 -1.294245 -1.553491 -2.0727 " transform="matrix(-0.85747,0.5145,0.5145,0.85747,43.35152,67.59608)"/>
<path style="fill:none;stroke-width:0.79701;stroke-linecap:butt;stroke-linejoin:miter;stroke:rgb(0%,0%,100%);stroke-opacity:1;stroke-miterlimit:10;" d="M 56.6925 56.694375 L 68.950312 44.436562 " transform="matrix(1,0,0,-1,42.745,67.96)"/>
<path style="fill:none;stroke-width:0.6376;stroke-linecap:round;stroke-linejoin:round;stroke:rgb(0%,0%,100%);stroke-opacity:1;stroke-miterlimit:10;" d="M -1.554382 2.074149 C -1.424619 1.292431 -0.00216524 0.129425 0.387298 -0.000429653 C 0.000577002 -0.127462 -1.42482 -1.293008 -1.551942 -2.071945 " transform="matrix(0.70714,0.70703,0.70703,-0.70714,111.69518,23.52274)"/>
<path style=" stroke:none;fill-rule:nonzero;fill:rgb(0%,0%,100%);fill-opacity:1;" d="M 101.429688 11.265625 C 101.429688 10.167969 100.539063 9.273438 99.4375 9.273438 C 98.335938 9.273438 97.445313 10.167969 97.445313 11.265625 C 97.445313 12.367188 98.335938 13.261719 99.4375 13.261719 C 100.539063 13.261719 101.429688 12.367188 101.429688 11.265625 Z M 101.429688 11.265625 "/>
<g style="fill:rgb(0%,0%,100%);fill-opacity:1;">
  <use xlink:href="#glyph1-1" x="98.738" y="7.748"/>
</g>
<path style=" stroke:none;fill-rule:nonzero;fill:rgb(0%,0%,100%);fill-opacity:1;" d="M 115.605469 25.4375 C 115.605469 24.339844 114.710938 23.445313 113.613281 23.445313 C 112.511719 23.445313 111.621094 24.339844 111.621094 25.4375 C 111.621094 26.539063 112.511719 27.433594 113.613281 27.433594 C 114.710938 27.433594 115.605469 26.539063 115.605469 25.4375 Z M 115.605469 25.4375 "/>
<g style="fill:rgb(0%,0%,100%);fill-opacity:1;">
  <use xlink:href="#glyph1-1" x="120.452" y="28.484"/>
</g>
<g style="fill:rgb(0%,0%,100%);fill-opacity:1;">
  <use xlink:href="#glyph2-1" x="127.384" y="28.484"/>
</g>
<g style="fill:rgb(0%,0%,100%);fill-opacity:1;">
  <use xlink:href="#glyph1-2" x="137.347" y="28.484"/>
  <use xlink:href="#glyph1-1" x="143.712105" y="28.484"/>
</g>
</g>
</svg>

<svg xmlns="http://www.w3.org/2000/svg" xmlns:xlink="http://www.w3.org/1999/xlink" width="200.903" height="133.632" viewBox="0 0 150.677 100.224"><defs><symbol id="b" overflow="visible"><path d="M4.844-3.797c.047-.14.047-.156.047-.234 0-.172-.141-.266-.297-.266a.46.46 0 0 0-.344.203c-.016.063-.11.36-.14.547-.079.25-.141.531-.204.797L3.453-.953c-.031.14-.469.844-1.125.844-.5 0-.61-.438-.61-.813 0-.453.173-1.078.5-1.953.157-.406.204-.516.204-.719 0-.437-.313-.812-.813-.812-.953 0-1.312 1.453-1.312 1.531 0 .11.094.11.11.11.109 0 .109-.032.156-.188.28-.938.671-1.235 1.015-1.235.078 0 .25 0 .25.313 0 .25-.11.516-.172.703-.406 1.063-.578 1.625-.578 2.094 0 .89.625 1.187 1.219 1.187.39 0 .719-.171 1-.453-.125.516-.25 1.016-.64 1.547-.266.328-.641.625-1.094.625-.141 0-.594-.031-.766-.422.156 0 .297 0 .422-.125a.5.5 0 0 0 .203-.406c0-.312-.266-.344-.36-.344C.829.531.5.687.5 1.171c0 .5.438.876 1.063.876 1.015 0 2.046-.906 2.328-2.031Zm0 0" style="stroke:none"/></symbol><symbol id="c" overflow="visible"><path d="M1.328-.828c.531-.578.828-.828 1.188-1.14 0 0 .609-.532.968-.891.954-.922 1.172-1.407 1.172-1.453 0-.094-.093-.094-.11-.094-.077 0-.093.015-.155.11-.297.484-.5.64-.735.64-.25 0-.36-.156-.515-.328-.188-.22-.36-.422-.688-.422-.75 0-1.203.922-1.203 1.14 0 .047.031.11.11.11.093 0 .109-.047.14-.11.188-.468.766-.468.844-.468.203 0 .39.062.625.14.406.156.515.156.765.156-.359.422-1.187 1.141-1.375 1.297l-.906.844C.781-.625.422-.062.422.016c0 .093.11.093.125.093C.625.11.64.094.703-.016c.235-.359.531-.625.86-.625.218 0 .328.094.578.375.156.22.343.375.625.375 1 0 1.578-1.265 1.578-1.53 0-.048-.047-.11-.125-.11-.094 0-.11.062-.14.14-.235.641-.876.829-1.204.829-.187 0-.375-.063-.578-.125-.344-.125-.5-.172-.703-.172-.016 0-.172 0-.266.03m0 0" style="stroke:none"/></symbol><symbol id="f" overflow="visible"><path d="M3.328-3.016c.063-.25.297-1.171.985-1.171.046 0 .296 0 .5.125a.58.58 0 0 0-.47.546c0 .157.11.344.376.344a.546.546 0 0 0 .531-.578c0-.516-.578-.656-.922-.656-.578 0-.922.531-1.047.75-.25-.656-.781-.75-1.078-.75-1.031 0-1.61 1.281-1.61 1.531 0 .11.11.11.126.11.078 0 .11-.032.125-.11.344-1.062 1-1.312 1.344-1.312.187 0 .53.093.53.671 0 .313-.171.97-.53 2.375-.157.61-.516 1.032-.954 1.032-.062 0-.28 0-.5-.125.25-.063.47-.266.47-.547 0-.266-.22-.344-.36-.344-.313 0-.547.25-.547.578 0 .453.484.656.922.656.672 0 1.031-.703 1.047-.75.125.36.484.75 1.078.75 1.031 0 1.594-1.28 1.594-1.53 0-.11-.079-.11-.11-.11-.094 0-.11.047-.14.11-.329 1.077-1 1.312-1.313 1.312-.39 0-.547-.313-.547-.657 0-.218.047-.437.156-.875Zm0 0" style="stroke:none"/></symbol><symbol id="g" overflow="visible"><path d="M.875-.594c-.031.156-.094.39-.094.438 0 .172.14.265.297.265a.41.41 0 0 0 .375-.28c.016-.032.344-1.391.39-1.579.079-.328.266-1.016.313-1.297.047-.125.328-.594.563-.812.078-.063.375-.328.797-.328.265 0 .406.125.422.125-.297.046-.516.28-.516.546 0 .157.11.344.375.344s.547-.234.547-.594c0-.343-.313-.64-.828-.64-.641 0-1.078.484-1.266.765-.094-.453-.453-.765-.922-.765-.453 0-.64.39-.734.562-.172.344-.297.938-.297.969 0 .11.094.11.11.11.109 0 .109-.016.171-.235.172-.703.375-1.187.735-1.187.156 0 .296.078.296.453 0 .218-.03.328-.156.843Zm0 0" style="stroke:none"/></symbol><symbol id="i" overflow="visible"><path d="M5.14-6.812s0-.11-.124-.11c-.157 0-1.094.094-1.266.11-.078.015-.14.062-.14.187s.093.125.234.125c.484 0 .5.063.5.172l-.032.203-.593 2.36c-.188-.376-.469-.641-.922-.641-1.156 0-2.39 1.468-2.39 2.922C.406-.547.952.109 1.718.109c.203 0 .703-.046 1.297-.75a.91.91 0 0 0 .906.75c.36 0 .578-.234.75-.546a6.5 6.5 0 0 0 .297-.985c0-.11-.094-.11-.125-.11-.094 0-.11.048-.14.188-.173.64-.345 1.235-.75 1.235-.282 0-.298-.266-.298-.453 0-.25.016-.313.047-.485ZM3.079-1.187c-.062.187-.062.203-.203.375-.437.546-.844.703-1.125.703-.5 0-.64-.547-.64-.938 0-.5.312-1.719.546-2.187.313-.578.75-.953 1.157-.953.64 0 .78.812.78.875a.6.6 0 0 1-.03.171Zm0 0" style="stroke:none"/></symbol><symbol id="h" overflow="visible"><path d="M4.078-2.297H6.86c.141 0 .329 0 .329-.203 0-.187-.188-.187-.329-.187H4.08v-2.797c0-.141 0-.328-.204-.328s-.203.187-.203.328v2.797H.89c-.141 0-.328 0-.328.187 0 .203.187.203.328.203h2.78V.5c0 .14 0 .328.204.328S4.078.641 4.078.5Zm0 0" style="stroke:none"/></symbol><clipPath id="a"><path d="M0 0h150.676v100.223H0Zm0 0"/></clipPath><clipPath id="d"><path d="M1 58h54v42.223H1Zm0 0"/></clipPath><clipPath id="e"><path d="M12 96h5v4.223h-5Zm0 0"/></clipPath></defs><g clip-path="url(#a)"><path d="M0 100.223h150.676V0H0Zm0 0" style="stroke:none;fill-rule:nonzero;fill:#ffe4c8;fill-opacity:1"/></g><path d="M.001.002h55.984" style="fill:none;stroke-width:.79701;stroke-linecap:butt;stroke-linejoin:miter;stroke:#000;stroke-opacity:1;stroke-miterlimit:10" transform="matrix(1 0 0 -1 42.745 69.814)"/><path d="M-1.555 2.072C-1.425 1.294 0 .13.387.002 0-.131-1.426-1.295-1.555-2.073" style="fill:none;stroke-width:.6376;stroke-linecap:round;stroke-linejoin:round;stroke:#000;stroke-opacity:1;stroke-miterlimit:10" transform="matrix(1 0 0 -1 98.73 69.814)"/><use xlink:href="#b" x="90.476" y="77.822" style="fill:#000;fill-opacity:1"/><path d="M.001.002v55.984" style="fill:none;stroke-width:.79701;stroke-linecap:butt;stroke-linejoin:miter;stroke:#000;stroke-opacity:1;stroke-miterlimit:10" transform="matrix(1 0 0 -1 42.745 69.814)"/><path d="M-1.554 2.073C-1.425 1.296 0 .128.387 0 .001-.13-1.425-1.294-1.554-2.071" style="fill:none;stroke-width:.6376;stroke-linecap:round;stroke-linejoin:round;stroke:#000;stroke-opacity:1;stroke-miterlimit:10" transform="matrix(0 -1 -1 0 42.745 13.829)"/><use xlink:href="#c" x="33.955" y="21.13" style="fill:#000;fill-opacity:1"/><g clip-path="url(#d)"><path d="M.001.002-29.51-29.51" style="fill:none;stroke-width:.79701;stroke-linecap:butt;stroke-linejoin:miter;stroke:#000;stroke-opacity:1;stroke-miterlimit:10" transform="matrix(1 0 0 -1 42.745 69.814)"/></g><g clip-path="url(#e)"><path d="M-1.554 2.071C-1.424 1.295 0 .13.39 0 .001-.13-1.424-1.296-1.554-2.072" style="fill:none;stroke-width:.6376;stroke-linecap:round;stroke-linejoin:round;stroke:#000;stroke-opacity:1;stroke-miterlimit:10" transform="scale(-1 1)rotate(45 -126.515 33.69)"/></g><use xlink:href="#f" x="3.321" y="96.106" style="fill:#000;fill-opacity:1"/><path d="m.501.501 56.192 56.192" style="fill:none;stroke-width:.79701;stroke-linecap:butt;stroke-linejoin:miter;stroke:red;stroke-opacity:1;stroke-dasharray:.79701,1.99255;stroke-miterlimit:10" transform="matrix(1 0 0 -1 42.745 69.814)"/><path d="M-1.554 2.071C-1.424 1.295.001.13.391 0 0-.13-1.424-1.296-1.554-2.072" style="fill:none;stroke-width:.6376;stroke-linecap:round;stroke-linejoin:round;stroke:red;stroke-opacity:1;stroke-miterlimit:10" transform="scale(-1 1)rotate(45 -105.293 -17.545)"/><path d="M.607.365 70.868 42.52" style="fill:none;stroke-width:.79701;stroke-linecap:butt;stroke-linejoin:miter;stroke:red;stroke-opacity:1;stroke-dasharray:.79701,1.99255;stroke-miterlimit:10" transform="matrix(1 0 0 -1 42.745 69.814)"/><path d="M-1.555 2.07C-1.423 1.296.001.13.387 0 0-.13-1.425-1.297-1.553-2.072" style="fill:none;stroke-width:.6376;stroke-linecap:round;stroke-linejoin:round;stroke:red;stroke-opacity:1;stroke-miterlimit:10" transform="matrix(-.85747 .5145 .5145 .85747 43.352 69.45)"/><path d="M56.693 56.693 68.95 44.439" style="fill:none;stroke-width:.79701;stroke-linecap:butt;stroke-linejoin:miter;stroke:#00f;stroke-opacity:1;stroke-miterlimit:10" transform="matrix(1 0 0 -1 42.745 69.814)"/><path d="M-1.553 2.073C-1.426 1.294-.001.128.388 0c-.386-.127-1.812-1.293-1.942-2.07" style="fill:none;stroke-width:.6376;stroke-linecap:round;stroke-linejoin:round;stroke:#00f;stroke-opacity:1;stroke-miterlimit:10" transform="matrix(.70714 .70703 .70703 -.70714 111.695 25.377)"/><path d="M101.43 13.121a1.99 1.99 0 0 0-1.993-1.992 1.99 1.99 0 0 0-1.992 1.992 1.99 1.99 0 0 0 1.993 1.992 1.99 1.99 0 0 0 1.992-1.992m0 0" style="stroke:none;fill-rule:nonzero;fill:#00f;fill-opacity:1"/><use xlink:href="#g" x="98.712" y="7.61" style="fill:#00f;fill-opacity:1"/><path d="M-.001 0h4.773" style="fill:none;stroke-width:.398;stroke-linecap:butt;stroke-linejoin:miter;stroke:#00f;stroke-opacity:1;stroke-miterlimit:10" transform="matrix(1 0 0 -1 98.712 9.004)"/><path d="M115.605 27.293a1.993 1.993 0 1 0-3.986.002 1.993 1.993 0 0 0 3.986-.002m0 0" style="stroke:none;fill-rule:nonzero;fill:#00f;fill-opacity:1"/><use xlink:href="#g" x="120.452" y="29.757" style="fill:#00f;fill-opacity:1"/><path d="M.001 0h4.77" style="fill:none;stroke-width:.398;stroke-linecap:butt;stroke-linejoin:miter;stroke:#00f;stroke-opacity:1;stroke-miterlimit:10" transform="matrix(1 0 0 -1 120.452 31.152)"/><use xlink:href="#h" x="127.437" y="29.757" style="fill:#00f;fill-opacity:1"/><g style="fill:#00f;fill-opacity:1"><use xlink:href="#i" x="137.4" y="29.757"/><use xlink:href="#g" x="142.586" y="29.757"/></g><path d="M-.002 0h9.957" style="fill:none;stroke-width:.398;stroke-linecap:butt;stroke-linejoin:miter;stroke:#00f;stroke-opacity:1;stroke-miterlimit:10" transform="matrix(1 0 0 -1 137.4 31.152)"/></svg>
